X:270
T:Whiskey Jack's Reel
R:reel
C:Bruce Osborne - Jan.2003
Z:abc by bosborne@kos.net
M:2/4
L:1/8
K:Amaj
c/d/|e2 ed|c/B/c/d/ c/B/A|FA/c/ B/A/F|E2 CD|\
EE Ac|e/f/e/d/ c/B/A/B/|c/B/A/c/ B/A/c|B2 cd|\
e2 ed|c/B/c/d/ c/B/A|FA/c/ B/A/F|E2 CD|\
EE Ac|e/f/e/d/ c/B/A/B/|c/B/A/c/ B/A/G/B/|AA/A/ A||\
c/d/|ee/f/ e/d/c/B/|AA/A/ AC/D/|EA/c/ e/c/A/c/|B/A/B/c/ Bc/d/|\
ee/f/ e/d/c/B/|AA/A/ AC/D/|EA/c/ e/c/A/c/|B/A/G/B/ Ac/d/|\
ee/f/ e/d/c/B/|AA/A/ AC/D/|EA/c/ e/c/A/c/|B/A/B/c/ Bc/d/|\
ee/f/ e/d/c/B/|AA/A/ AC/D/|EA/c/ e/c/A/c/|B/A/G/B/ A||
